X:118
T: Shi er yue shu
N: C1612
O: China,Anhui, Liuan
S: III, 585]
R: Xiaodiao. Fengturenqing]
M: 2/4
L: 1/16
K: Bb
G2G2c2c2 | G2cBGBG2 | F4G4 |
G2c2B2c2 | F4G4 |
c2B2G2B2 | F4G4 |
G2G2B2B2 | B2d2d2B2 | c4c4 |
G2c2B2c2 | F4G4 |
B2B2B2d2 | c8 | G4c2B2 | F4G4

@@@ Tune index: 6673
